public/milfoski-nav0.svg

<svg width="212" height="259" viewBox="0 0 212 259" fill="none" xmlns="http://www.w3.org/2000/svg">
<path d="M173.716 114.954C185.84 113.852 204.324 114.931 209.261 100.28C213.141 88.7653 198.844 73.939 190.184 68.9201C185.057 65.9485 179.471 64.8551 173.608 65.1157C172.413 65.1688 168.557 66.4342 167.52 65.6048C165.305 63.8321 163.748 56.8133 162.357 54.3545C159.529 49.3552 156.534 43.2056 152.194 39.2997C146.6 34.2652 130.78 34.4142 130.78 44.5172C130.78 51.5535 149.501 63.0253 152.955 53.4305C156.334 44.0433 149.55 11.7617 134.422 15.7664C130.557 16.7894 123.198 18.0608 121.432 22.234C117.987 30.3773 121.577 38.307 126.541 44.8433C131.93 51.9392 134.862 45.6108 135.346 38.7562C136.282 25.4755 133.488 9.05947 119.421 3.70086C110.293 0.223325 100.044 2.43269 91.7574 7.12488C83.6505 11.7155 83.7137 19.4671 83.7137 27.832C83.7137 33.7691 82.2675 41.7129 84.2572 47.3978C86.6698 54.2911 99.1321 55.6018 105.019 56.0393C106.678 56.1627 119.131 57.9222 120.454 55.8219C122.089 53.2241 120.764 46.6451 120.454 43.9738C119.484 35.635 116.239 27.9375 113.117 20.2231C112.506 18.7139 107.773 3.41426 104.149 6.63573C99.8386 10.4672 92.6128 18.2749 91.3226 23.9732C89.4911 32.0622 86.3431 35.8286 80.6157 41.365C77.5903 44.2896 71.6026 49.6968 70.1263 53.7566C68.4534 58.3572 59.4327 52.0879 56.9738 49.4087C52.9509 45.0256 49.8829 36.3914 47.7344 30.8212C46.493 27.6029 45.3 22.2946 48.2235 19.6252C58.9501 9.83142 79.5644 14.8826 92.3009 13.9729C102.241 13.2629 110.961 8.77347 120.889 11.2554" stroke="#101828" stroke-width="3" stroke-linecap="round"/>
<path d="M134.583 138.435C134.583 143.79 138.888 143.152 143.387 141.152C144.466 140.673 146.245 140.034 147.083 139.196C149.435 136.844 142.799 141.321 142.083 141.75C139.067 143.56 137.131 143.81 134.202 140.881C130.288 136.967 135.837 135.5 138.496 135.5" stroke="#101828" stroke-width="3" stroke-linecap="round"/>
<path d="M92.5152 142.353C94.5671 142.353 98.2762 142.646 98.2762 139.526C98.2762 139.372 94.2514 140.916 93.4935 141.863C92.3572 143.284 100.555 141.539 98.9284 142.353C96.7725 143.43 90.5586 146.291 90.5586 142.353" stroke="#101828" stroke-width="3" stroke-linecap="round"/>
<path d="M114.013 140.541C114.013 149.264 113.635 155.181 107.769 161.78C105.553 164.273 103.13 165.398 102.459 168.417C101.853 171.143 100.738 173.188 100.738 176.136C100.738 180.497 101.08 180.538 104.966 178.594C108.465 176.845 109.169 183.824 110.915 185.183C115.609 188.833 121.828 174.96 122.863 184.789C123.094 186.991 128.711 184.858 129.746 183.708C131.323 181.955 129.942 174.006 129.942 171.564C129.942 169.162 130.827 167.257 130.827 164.828C130.827 160.956 127.634 157.439 126.599 153.815C125.666 150.548 121.035 144.502 122.027 141.032C122.318 140.014 127.504 137.608 128.566 137.001C130.146 136.098 130.927 134.296 132.597 133.461" stroke="#101828" stroke-width="3" stroke-linecap="round"/>
<path d="M114.013 143.2C109.353 141.647 105.2 139.378 100.738 137.891" stroke="#101828" stroke-width="3" stroke-linecap="round"/>
<path d="M98.0835 138.773C89.3212 139.489 83.8879 140.293 76.0084 142.756C74.405 143.257 73.2115 143.985 71.5344 144.083C69.1914 144.221 73.9696 147.997 74.8776 148.311C79.4816 149.905 88.1283 149.067 92.4787 148.016C97.8438 146.721 102.329 147.153 106.933 144.083" stroke="#101828" stroke-width="3" stroke-linecap="round"/>
<path d="M82.1562 142.312C84.6499 143.272 86.0657 145.926 88.5477 146.934C90.7032 147.81 93.109 147.622 95.3816 147.622C98.638 147.622 99.4612 145.756 100.741 143.197" stroke="#101828" stroke-width="3" stroke-linecap="round"/>
<path d="M125.52 144.966C133.06 147.48 141.049 146.736 148.922 146.736C151.085 146.736 162.297 148.236 163.377 145.458C164.967 141.368 146.497 135.3 143.612 133.954C139.364 131.971 132.094 133.664 128.174 135.232" stroke="#101828" stroke-width="3" stroke-linecap="round"/>
<path d="M134.367 137.891C137.924 138.568 141.691 139.538 144.987 137.891" stroke="#101828" stroke-width="3" stroke-linecap="round"/>
<path d="M64.457 133.461C77.247 133.461 89.8845 135.231 102.511 135.231" stroke="#101828" stroke-width="3" stroke-linecap="round"/>
<path d="M120.207 131.694C127.293 131.221 134.354 130.287 141.446 129.924C142.484 129.87 142.688 130.032 143.413 130.612C144.35 131.362 146.416 132.579 147.641 132.579" stroke="#101828" stroke-width="3" stroke-linecap="round"/>
<path d="M89.2334 200.714C92.8613 200.714 98.9438 202.006 102.066 200.272C105.198 198.532 104.325 195.062 107.13 199.829C108.454 202.081 111.24 198.189 112.046 197.175C113.812 194.95 115.668 196.217 117.946 197.666C121.861 200.158 127.958 198.945 132.597 198.945C135.268 198.945 137.518 199.554 140.119 199.78C146.966 200.376 140.146 202.023 136.825 202.288C127.98 202.992 118.916 202.484 110.03 202.484C101.516 202.484 93.1974 201.599 84.8086 201.599" stroke="#101828" stroke-width="3" stroke-linecap="round"/>
<path d="M91.0039 205.144C92.106 210.792 92.7738 215.925 92.7738 221.614C92.7738 224.625 91.9434 229.286 93.2163 232.086C94.8638 235.71 94.0799 240.418 96.7562 243.689C99.4088 246.931 98.7537 252.778 103.59 254.505C109.241 256.524 115.384 256.472 121.29 256.472C124.129 256.472 127.62 257.08 130.139 255.587C147.501 245.299 143.217 218.138 143.217 200.719" stroke="#101828" stroke-width="3" stroke-linecap="round"/>
<path d="M108.703 206.031C108.703 215.108 107.384 224.079 105.605 232.974C104.47 238.65 102.508 244.462 102.508 250.28" stroke="#101828" stroke-width="3" stroke-linecap="round"/>
<path d="M125.52 203.375C125.52 215.256 127.384 229.624 124.832 241.429C124.045 245.066 123.75 251.265 123.75 254.703" stroke="#101828" stroke-width="3" stroke-linecap="round"/>
<path d="M108.703 205.141V207.796" stroke="#101828" stroke-width="3" stroke-linecap="round"/>
<path d="M110.474 192.75C105.059 194.148 84.0757 191.476 80.5816 199.338C77.9562 205.245 83.1723 214.676 79.5 220.184" stroke="#101828" stroke-width="3" stroke-linecap="round"/>
<path d="M109.59 187.449C116.477 187.449 124.288 186.378 131.026 188.334C135.86 189.737 139.476 190.892 144.595 190.989C148.79 191.068 153.848 197.918 155.166 201.608C158.052 209.691 157.378 217.932 157.378 226.388" stroke="#101828" stroke-width="3" stroke-linecap="round"/>
<path d="M48.5273 147.625C48.5273 158.474 48.5273 169.323 48.5273 180.172C48.5273 186.736 52.9195 190.882 54.7221 196.741C56.0253 200.976 57.9203 205.484 60.032 209.18C64.8146 217.549 74.929 219.455 77.7805 229.436C78.3126 231.298 80.7886 235.468 82.1562 237.007C85.1878 240.418 87.0672 241.352 91.8909 242.317" stroke="#101828" stroke-width="3" stroke-linecap="round"/>
<path d="M142.332 240.545C148.219 237.275 155.32 234.43 157.721 227.762C158.566 225.416 157.696 222.803 158.704 220.584C160.046 217.632 160.828 214.049 160.916 210.85C161.021 207.093 163.465 203.756 163.571 199.837C163.701 195.043 166.362 191.552 167.062 187.005C168.185 179.703 168.116 171.016 170.651 164.045C174.131 154.475 170.651 141.934 170.651 132.137C170.651 128.154 170.651 124.172 170.651 120.189C170.651 114.368 167.111 108.906 167.111 103.375" stroke="#101828" stroke-width="3" stroke-linecap="round"/>
<path d="M96.3153 106.031C106.438 107.406 113.534 103.49 114.703 92.8548C115.272 87.6773 116.142 84.6679 110.573 84.7917C100.825 85.0083 91.3654 88.0687 83.7291 94.2314C81.5421 95.9963 72.5413 102.189 79.4517 104.212C91.0583 107.609 115.761 106.606 114.851 89.7574C114.573 84.6255 111.67 79.3 106.099 78.7936C100.656 78.2987 97.227 82.597 94.9387 87.0533C91.6967 93.3667 121.993 92.486 126.896 87.4466C131.116 83.109 123.55 75.8814 120.209 73.8771C114.239 70.295 102.03 68.6573 95.5778 71.7138C93.5839 72.6583 83.312 83.944 87.7606 86.1683C92.2765 88.4263 97.9171 89.0809 102.412 86.5125C106.831 83.9872 104.984 82.046 101.625 80.3668" stroke="#101828" stroke-width="3" stroke-linecap="round"/>
<path d="M73.3034 104.264C75.0353 100.327 75.6244 94.191 69.3702 94.529C62.7722 94.8857 59.9532 106.177 59.193 111.245C58.3491 116.871 56.2654 125.637 62.6837 128.846C69.3385 132.174 62.6907 115.11 62.2412 114.244C60.3945 110.688 58.2065 108.702 54.2273 108C53.4622 107.865 50.5828 106.94 49.8516 107.509C48.3637 108.666 48.1442 111.453 47.8359 113.113C47.043 117.383 44.2516 120.643 44.0993 125.11C44.0248 127.297 46.455 141.563 47.5409 133.419C47.6928 132.279 47.08 123.082 45.8693 125.503" stroke="#101828" stroke-width="3" stroke-linecap="round"/>
<path d="M39.6752 146.737C32.5069 141.799 28.3159 138.465 28.1706 129.529C28.0612 122.803 27.8894 116.707 26.4498 110.109C25.4524 105.537 28.3892 93.4338 21.435 96.4411C15.4439 99.0318 9.19451 105.674 4.47306 96.9819C0.149001 89.0217 1.31723 75.3271 9.38957 70.1378C11.709 68.6467 15.1722 66.2046 18.0426 66.2046C20.7379 66.2046 20.9513 65.9083 22.5658 63.648C28.8705 54.8214 38.1615 47.0803 47.9841 42.4579C50.7138 41.1733 55.4492 39.0036 58.6037 39.7046C60.9254 40.2205 61.6027 38.8268 63.9627 37.0006C68.3252 33.6248 71.7917 31.7766 76.844 33.4607" stroke="#101828" stroke-width="3" stroke-linecap="round"/>
<path d="M135.253 100.718C143.462 111.273 153.647 122.122 167.8 117.729C169.493 117.204 173.867 113.854 170.16 112.764C169.008 112.425 167.48 113.636 168.784 113.6C173.061 113.481 178.372 110.383 181.862 108.191C190.927 102.499 181.012 90.0615 176.404 85.0347C174.536 82.9967 160.999 70.1874 158.656 77.2174C154.531 89.5915 186.903 94.6199 182.501 75.0542C179.975 63.8301 171.436 62.6646 161.409 62.6646C154.029 62.6646 132.189 61.473 139.285 63.5004C144.21 64.9076 141.262 45.9203 139.973 43.8836C132.534 32.1247 116.779 29.2493 104.033 28.6424C103.58 28.6208 95.2298 28.0238 97.7894 30.314C99.4715 31.8191 101.959 33.3446 104.279 33.4606C108.538 33.6735 113.916 30.451 113.916 25.8892C113.916 16.3056 103.151 16.6461 96.3144 16.6461C92.1943 16.6461 79.5 14.6745 79.5 21.071" stroke="#101828" stroke-width="3" stroke-linecap="round"/>
<path d="M60.9141 68.8556C62.0716 71.9423 77.7825 66.2173 72.7137 59.121C67.6389 52.0163 64.4539 60.6607 64.4539 65.3158" stroke="#101828" stroke-width="3" stroke-linecap="round"/>
<path d="M82.1557 227.271C82.1557 228.65 80.8943 240.818 84.3189 239.07C88.5735 236.9 91.7316 231.026 85.4989 230.811C81.4399 230.671 83.6312 232.188 86.1872 234.744C88.5848 237.141 91.3628 238.836 92.5787 242.119C92.6906 242.421 94.0856 245.138 93.4636 245.216C88.6872 245.813 81.8086 235.561 80.1399 232.286C77.7963 227.685 78.6068 221.254 74.2401 217.979C69.8769 214.706 63.534 214.529 58.7531 211.341C56.3224 209.721 52.6411 196.297 56.4915 196.297" stroke="#101828" stroke-width="3" stroke-linecap="round"/>
<path d="M163.573 226.389C163.573 223.73 165.193 221.018 166.227 218.621C166.849 217.182 172.948 205.133 170.406 207.166C163.899 212.372 160.934 219.043 156.05 225.013C154.617 226.764 148.748 228.063 148.528 229.929C148.359 231.365 147.224 231.68 146.266 232.584C144.298 234.443 147.98 231.415 148.381 230.814C148.851 230.109 149.413 227.855 149.413 227.914C149.413 229.695 149.677 231.728 149.216 233.469C148.665 235.553 146.334 239.773 144.497 240.942C141.873 242.612 144.833 239.247 145.48 238.73C147.861 236.825 149.035 234.234 151.183 232.24C154.123 229.51 155.292 227.605 157.574 224.226C158.935 222.213 158.753 220.612 159.344 218.425C160.136 215.495 162.696 214.124 164.359 211.837C166.142 209.386 167.487 206.025 168.882 203.38C170.491 200.332 177.668 186.197 169.079 191.482C166.844 192.858 169.809 179.902 170.161 178.798C170.879 176.54 171.737 173.977 173.307 172.406" stroke="#101828" stroke-width="3" stroke-linecap="round"/>
<path d="M97.1992 145.854C99.9542 145.854 107.878 142.938 102.411 147.624C101.024 148.813 92.7888 152.963 94.9376 152.934C100.209 152.863 103.627 151.41 108.163 149.394C108.914 149.061 117.302 139.272 111.162 145.658C109.131 147.77 109.143 151.17 107.819 153.819" stroke="#101828" stroke-width="3" stroke-linecap="round"/>
<path d="M125.517 153.817C125.517 156.651 126.402 148.195 126.402 145.36C126.402 141.188 128.456 153.467 129.007 157.602C129.356 160.214 126.741 152.799 125.123 150.719C123.382 148.48 129.98 152.547 130.827 153.817" stroke="#101828" stroke-width="3" stroke-linecap="round"/>
<path d="M110.474 189.219C103.939 189.837 82.1553 188.265 82.1553 200.33C82.1553 205.244 79.6612 209.252 77.7305 213.113" stroke="#101828" stroke-width="3" stroke-linecap="round"/>
<path d="M111.359 193.641C117.776 193.751 123.458 196.296 129.944 196.296C134.71 196.296 139.091 198.065 143.661 198.065C150.75 198.065 155.396 205.395 157.378 211.34" stroke="#101828" stroke-width="3" stroke-linecap="round"/>
<path d="M96.3126 234.354C98.4954 235.839 103.507 238.075 104.327 240.942C104.401 241.203 105.788 242.891 105.457 242.466C103.075 239.404 100.388 233.872 99.9016 229.978C99.6567 228.019 98.9675 224.128 98.9675 224.128C98.9675 224.128 99.4099 226.229 99.6558 227.274C100.31 230.054 99.8884 228.723 99.8525 226.389C99.7924 222.484 99.306 220.435 96.8534 217.982C96.7908 217.919 100.737 222.995 100.737 219.752C100.737 216.948 98.7429 215.18 97.6892 212.721C96.135 209.095 103.689 218.073 105.605 221.522C106.023 222.275 106.047 222.89 106.047 223.734C106.047 225.28 105.857 220.645 105.654 219.113C105.524 218.127 104.201 206.425 103.196 207.51C97.6465 213.503 98.0825 223.651 98.0825 231.257C98.0825 236.458 93.1045 221.952 92.0844 216.851C91.4009 213.434 93.3045 211.692 93.6577 208.69C94.5303 201.272 97.1976 223.345 97.1976 230.814" stroke="#1DBE02" stroke-width="3" stroke-linecap="round"/>
<path d="M129.941 247.622C130.282 237.91 130.183 228.067 130.876 218.369C130.929 217.623 131.545 211.634 132.4 211.634C132.414 211.634 132.821 226.457 133.039 228.202C133.476 231.702 132.22 242.048 133.53 238.773C135.676 233.409 135.251 224.669 135.251 218.812C135.251 214.94 135.251 227.549 135.251 229.136C135.251 232.824 135.251 236.511 135.251 240.199C135.251 241.876 135.251 248.109 135.251 242.362C135.251 235.561 135.251 228.759 135.251 221.958C135.251 217.364 134.928 211.805 136.185 207.405C137.549 202.632 137.49 217.253 137.857 222.204C138.11 225.624 138.695 229.206 138.791 232.578C138.836 234.151 138.791 238.871 138.791 237.298C138.791 229.448 138.791 221.598 138.791 213.748C138.791 206.925 138.852 208.029 138.349 214.879C138.022 219.323 137.906 223.704 137.906 228.153" stroke="#FF0404" stroke-width="3" stroke-linecap="round"/>
<path d="M95.4297 242.313C98.302 232.289 101.624 223.569 101.624 213.306C101.624 211.421 104.155 204.314 104.279 208.684C104.588 219.479 103.394 230.546 103.394 241.035C103.394 241.725 102.475 248.859 101.084 248.704C97.0579 248.257 96.3147 227.867 96.3147 222.844C96.3147 217.389 95.4297 212.365 95.4297 206.914" stroke="#1DBE02" stroke-width="3" stroke-linecap="round"/>
</svg>

<svg xmlns="http://www.w3.org/2000/svg" width="212" height="259" fill="none" xmlns:v="https://vecta.io/nano"><style><![CDATA[.B{stroke-width:3}.C{stroke-linecap:round}]]></style><g stroke="#101828" class="B C"><path d="M173.716 114.954c12.124-1.102 30.608-.023 35.545-14.674 3.88-11.515-10.417-26.341-19.077-31.36-5.127-2.972-10.713-4.065-16.576-3.804-1.195.053-5.051 1.319-6.088.489-2.215-1.773-3.772-8.791-5.163-11.25-2.828-4.999-5.823-11.149-10.163-15.055-5.594-5.035-21.414-4.885-21.414 5.218 0 7.036 18.721 18.508 22.175 8.913 3.379-9.387-3.405-41.669-18.533-37.664-3.865 1.023-11.224 2.294-12.99 6.468-3.445 8.143.145 16.073 5.109 22.609 5.389 7.096 8.321.767 8.805-6.087.936-13.281-1.858-29.697-15.925-35.055-9.128-3.478-19.377-1.268-27.664 3.424-8.107 4.591-8.044 12.342-8.044 20.707 0 5.937-1.446 13.881.543 19.566 2.413 6.893 14.875 8.204 20.762 8.642 1.659.123 14.112 1.883 15.435-.217 1.635-2.598.31-9.177 0-11.848-.97-8.339-4.215-16.036-7.337-23.751-.611-1.509-5.344-16.809-8.968-13.587-4.31 3.831-11.536 11.639-12.826 17.337-1.831 8.089-4.979 11.855-10.707 17.392-3.025 2.925-9.013 8.332-10.489 12.392-1.673 4.601-10.694-1.669-13.153-4.348-4.023-4.383-7.091-13.017-9.239-18.588-1.241-3.218-2.434-8.527.489-11.196C58.95 9.833 79.564 14.884 92.3 13.975c9.94-.71 18.66-5.199 28.588-2.717m13.695 127.177c0 5.355 4.305 4.717 8.804 2.717 1.079-.479 2.858-1.118 3.696-1.956 2.352-2.352-4.284 2.125-5 2.554-3.016 1.81-4.952 2.06-7.881-.869-3.914-3.914 1.635-5.381 4.294-5.381m-45.981 6.853c2.052 0 5.761.293 5.761-2.827 0-.154-4.025 1.39-4.783 2.337-1.136 1.421 7.062-.324 5.435.49-2.156 1.077-8.37 3.938-8.37 0m23.455-1.812c0 8.723-.378 14.64-6.244 21.239-2.216 2.493-4.639 3.618-5.31 6.637-.606 2.726-1.721 4.771-1.721 7.719 0 4.361.342 4.402 4.228 2.458 3.499-1.749 4.203 5.23 5.949 6.589 4.694 3.65 10.913-10.223 11.948-.394.231 2.202 5.848.069 6.883-1.081 1.577-1.753.196-9.702.196-12.144 0-2.402.885-4.307.885-6.736 0-3.872-3.193-7.389-4.228-11.013-.933-3.267-5.564-9.313-4.572-12.783.291-1.018 5.477-3.424 6.539-4.031 1.58-.903 2.361-2.705 4.031-3.54"/><path d="M114.013 143.2c-4.66-1.553-8.813-3.822-13.275-5.309m-2.654.882c-8.762.716-14.196 1.52-22.075 3.983-1.603.501-2.797 1.229-4.474 1.327-2.343.138 2.435 3.914 3.343 4.228 4.604 1.594 13.251.756 17.601-.295 5.365-1.295 9.85-.863 14.454-3.933"/><path d="M82.156 142.312c2.494.96 3.91 3.614 6.392 4.622 2.155.876 4.561.688 6.834.688 3.256 0 4.08-1.866 5.359-4.425m24.779 1.769c7.54 2.514 15.529 1.77 23.402 1.77 2.163 0 13.375 1.5 14.455-1.278 1.59-4.09-16.88-10.158-19.765-11.504-4.248-1.983-11.518-.29-15.438 1.278"/><path d="M134.367 137.891c3.557.677 7.324 1.647 10.62 0m-80.53-4.43c12.79 0 25.428 1.77 38.054 1.77m17.696-3.537c7.086-.473 14.147-1.407 21.239-1.77 1.038-.054 1.242.108 1.967.688.937.75 3.003 1.967 4.228 1.967m-58.408 68.135c3.628 0 9.71 1.292 12.833-.442 3.132-1.74 2.259-5.21 5.064-.443 1.324 2.252 4.11-1.64 4.916-2.654 1.766-2.225 3.622-.958 5.9.491 3.915 2.492 10.012 1.279 14.651 1.279 2.671 0 4.921.609 7.522.835 6.847.596.027 2.243-3.294 2.508-8.845.704-17.909.196-26.795.196-8.514 0-16.833-.885-25.221-.885m6.195 3.545c1.102 5.648 1.77 10.781 1.77 16.47 0 3.011-.83 7.672.443 10.472 1.647 3.624.864 8.332 3.54 11.603 2.653 3.242 1.997 9.089 6.834 10.816 5.651 2.019 11.794 1.967 17.7 1.967 2.839 0 6.33.608 8.849-.885 17.362-10.288 13.078-37.449 13.078-54.868"/><path d="M108.703 206.031c0 9.077-1.319 18.048-3.098 26.943-1.135 5.676-3.097 11.488-3.097 17.306m23.012-46.905c0 11.881 1.864 26.249-.688 38.054-.787 3.637-1.082 9.836-1.082 13.274"/><path d="M108.703 205.141v2.655m1.771-15.046c-5.415 1.398-26.398-1.274-29.892 6.588-2.625 5.907 2.591 15.338-1.082 20.846m30.09-32.735c6.887 0 14.698-1.071 21.436.885 4.834 1.403 8.45 2.558 13.569 2.655 4.195.079 9.253 6.929 10.571 10.619 2.886 8.083 2.212 16.324 2.212 24.78M48.527 147.625v32.547c0 6.564 4.392 10.71 6.195 16.569 1.303 4.235 3.198 8.743 5.31 12.439 4.783 8.369 14.897 10.275 17.749 20.256.532 1.862 3.008 6.032 4.376 7.571 3.032 3.411 4.911 4.345 9.735 5.31m50.44-1.772c5.887-3.27 12.988-6.115 15.389-12.783.845-2.346-.025-4.959.983-7.178 1.342-2.952 2.124-6.535 2.212-9.734.105-3.757 2.549-7.094 2.655-11.013.13-4.794 2.791-8.285 3.491-12.832 1.123-7.302 1.054-15.989 3.589-22.96 3.48-9.57 0-22.111 0-31.908v-11.948c0-5.821-3.54-11.283-3.54-16.814m-70.796 2.656c10.123 1.375 17.219-2.541 18.388-13.176.569-5.177 1.439-8.187-4.13-8.063-9.748.217-19.208 3.277-26.844 9.44-2.187 1.765-11.188 7.958-4.277 9.981 11.607 3.397 36.309 2.394 35.399-14.455-.278-5.132-3.181-10.457-8.752-10.964-5.443-.495-8.872 3.803-11.16 8.26-3.242 6.313 27.054 5.433 31.957.393 4.22-4.338-3.346-11.565-6.687-13.57-5.97-3.582-18.179-5.22-24.631-2.163-1.994.944-12.266 12.23-7.817 14.454 4.516 2.258 10.157 2.913 14.651.344 4.419-2.525 2.572-4.466-.787-6.146m-28.322 23.898c1.732-3.937 2.321-10.073-3.933-9.735-6.598.357-9.417 11.648-10.177 16.716-.844 5.626-2.928 14.392 3.491 17.601 6.655 3.328.007-13.736-.443-14.602-1.847-3.556-4.035-5.542-8.014-6.244-.765-.135-3.645-1.06-4.376-.491-1.488 1.157-1.707 3.944-2.016 5.604-.793 4.27-3.584 7.53-3.737 11.997-.075 2.187 2.356 16.453 3.442 8.309.152-1.14-.461-10.337-1.672-7.916m-6.193 21.234c-7.168-4.938-11.359-8.272-11.505-17.208-.109-6.726-.281-12.822-1.721-19.42-.997-4.572 1.939-16.675-5.015-13.668-5.991 2.591-12.24 9.233-16.962.541-4.324-7.96-3.156-21.655 4.917-26.844 2.319-1.491 5.783-3.933 8.653-3.933 2.695 0 2.909-.296 4.523-2.557 6.305-8.827 15.596-16.568 25.418-21.19 2.73-1.285 7.465-3.454 10.62-2.753 2.322.516 2.999-.878 5.359-2.704 4.362-3.376 7.829-5.224 12.881-3.54"/><path d="M135.253 100.718c8.209 10.555 18.394 21.404 32.547 17.011 1.693-.525 6.067-3.875 2.36-4.965-1.152-.339-2.68.872-1.376.836 4.277-.119 9.588-3.217 13.078-5.409 9.065-5.692-.85-18.13-5.458-23.156-1.868-2.038-15.405-14.847-17.748-7.817-4.125 12.374 28.247 17.403 23.845-2.163-2.526-11.224-11.065-12.39-21.092-12.39-7.38 0-29.22-1.192-22.124.836 4.925 1.407 1.977-17.58.688-19.617-7.439-11.759-23.194-14.634-35.94-15.241-.453-.022-8.803-.619-6.244 1.672 1.682 1.505 4.17 3.031 6.49 3.147 4.259.213 9.637-3.01 9.637-7.571 0-9.584-10.765-9.243-17.602-9.243-4.12 0-16.814-1.972-16.814 4.425M60.914 68.856c1.157 3.087 16.868-2.638 11.8-9.735-5.075-7.105-8.26 1.54-8.26 6.195m17.702 161.955c0 1.379-1.261 13.547 2.163 11.799 4.255-2.17 7.413-8.044 1.18-8.259-4.059-.14-1.868 1.377.688 3.933 2.398 2.397 5.176 4.092 6.391 7.375.112.302 1.507 3.019.885 3.097-4.776.597-11.655-9.655-13.324-12.93-2.344-4.601-1.533-11.032-5.9-14.307s-10.706-3.45-15.487-6.638c-2.431-1.62-6.112-15.044-2.262-15.044m107.083 30.092c0-2.659 1.62-5.371 2.654-7.768.622-1.439 6.721-13.488 4.179-11.455-6.507 5.206-9.472 11.877-14.356 17.847-1.433 1.751-7.302 3.05-7.522 4.916-.169 1.436-1.304 1.751-2.262 2.655-1.968 1.859 1.714-1.169 2.115-1.77.47-.705 1.032-2.959 1.032-2.9 0 1.781.264 3.814-.197 5.555-.551 2.084-2.882 6.304-4.719 7.473-2.624 1.67.336-1.695.983-2.212 2.381-1.905 3.555-4.496 5.703-6.49 2.94-2.73 4.109-4.635 6.391-8.014 1.361-2.013 1.179-3.614 1.77-5.801.792-2.93 3.352-4.301 5.015-6.588 1.783-2.451 3.128-5.812 4.523-8.457 1.609-3.048 8.786-17.183.197-11.898-2.235 1.376.73-11.58 1.082-12.684.718-2.258 1.576-4.821 3.146-6.392m-76.108-26.552c2.755 0 10.679-2.916 5.212 1.77-1.387 1.189-9.622 5.339-7.473 5.31 5.271-.071 8.689-1.524 13.225-3.54.751-.333 9.139-10.122 2.999-3.736-2.031 2.112-2.019 5.512-3.343 8.161m17.698-.002c0 2.834.885-5.622.885-8.457 0-4.172 2.054 8.107 2.605 12.242.349 2.612-2.266-4.803-3.884-6.883-1.741-2.239 4.857 1.828 5.704 3.098m-20.353 35.402c-6.535.618-28.319-.954-28.319 11.111 0 4.914-2.494 8.922-4.425 12.783m33.629-19.472c6.417.11 12.099 2.655 18.585 2.655 4.766 0 9.147 1.769 13.717 1.769 7.089 0 11.735 7.33 13.717 13.275"/></g><path d="M96.313 234.354c2.183 1.485 7.194 3.721 8.014 6.588.074.261 1.461 1.949 1.13 1.524-2.382-3.062-5.069-8.594-5.555-12.488-.245-1.959-.934-5.85-.934-5.85l.688 3.146c.654 2.78.233 1.449.197-.885-.06-3.905-.547-5.954-2.999-8.407-.063-.063 3.884 5.013 3.884 1.77 0-2.804-1.994-4.572-3.048-7.031-1.554-3.626 6 5.352 7.916 8.801.418.753.442 1.368.442 2.212 0 1.546-.19-3.089-.393-4.621-.13-.986-1.453-12.688-2.458-11.603-5.549 5.993-5.114 16.141-5.114 23.747 0 5.201-4.978-9.305-5.998-14.406-.684-3.417 1.22-5.159 1.573-8.161.873-7.418 3.54 14.655 3.54 22.124" stroke="#1dbe02" class="B C"/><path d="M129.941 247.622c.341-9.712.242-19.555.935-29.253.053-.746.669-6.735 1.524-6.735.014 0 .421 14.823.639 16.568.437 3.5-.819 13.846.491 10.571 2.146-5.364 1.721-14.104 1.721-19.961 0-3.872 0 8.737 0 10.324v11.063 2.163-20.404c0-4.594-.323-10.153.934-14.553 1.364-4.773 1.305 9.848 1.672 14.799.253 3.42.838 7.002.934 10.374.045 1.573 0 6.293 0 4.72v-23.55c0-6.823.061-5.719-.442 1.131-.327 4.444-.443 8.825-.443 13.274" stroke="#ff0404" class="B C"/><path d="M95.43 242.313c2.872-10.024 6.194-18.744 6.194-29.007 0-1.885 2.531-8.992 2.655-4.622.309 10.795-.885 21.862-.885 32.351 0 .69-.919 7.824-2.31 7.669-4.026-.447-4.769-20.837-4.769-25.86 0-5.455-.885-10.479-.885-15.93" stroke="#1dbe02" class="B C"/></svg>
